X: 1
T: la Ronfleuse Gobeille
T: the Snoring (Mrs) Gobeille
C: trad
O: Qu\'ebec
R: reel
N: The third part is identical to the second part of Judy's Reel (Maid Behind the Bar)
B: Begin (Fiddle Music from the Ottawa Valley: Dawson Girdwood), 1985; #49, p.58
B: Carlin (Master Collection), 1984; #78, p.52
B: Hart & Sandell (Dance ce Soir), 2001; p.74
B: Hinds/Hebert (Grumbling Old Woman), 1981; p.17
B: Miller & Perron (New England Fiddler's Repertoire), 1983; #154
D: First recorded on 78 RPM by fiddler Willie Ringuette (1898-1969) of Trois-Rivires.
D: Compo Records, Joseph Bouchard - "Reel carnaval" (1968. Appears as "Saint-Simon".
D: Folkways FG3531, "Jean Carignan, Old Time Fiddle Songs" (1966).
D: Folkways FTS 31098, Ken Perlman - "Clawhammer Banjo and Fingerstyle Guitar Solos."
D: Philo PH2001, "Jean Carignan" (1973).
D: Rounder 7002, Graham Townsend - "Le Violon/The Fiddle."
D: La Bottine souriante - "Y a ben du changement" (1978).
Z: 2007 John Chambers <jc:trillian.mit.edu> from Pascal Gemme's blog
M: 2/4
L: 1/16
K: D
|: {f}a2fd Adfa     | gece fddf \
|     a2fd Adfa     | gecA d4  :|
|:    A2f2 fe[f2A2] | B2g2 gf[g2B2] \
|1,3  A2c2 [c2E2]Ac | dcde fafd \
:|2,3 A2c2 [c2E2]A2 | d2e2 [f4A4] :|
|:    fgab afde     | fdad f2ff \
|1,3  efga bgef     | gebe gegg \
:|2,4 eBBA BcdB     | AFEF D4  |]
